X:225
L:1/8
Q:1/4=112
M:6/8
K:Eb
"^Allegretto" E | G2 G F2 G | E2 E E2 F | G2 G E2 G | B2 B B2 A | G2 G F2 G | E2 E E2 (E/F/) | 
 G2 G E2 G | B2 B B2 || (B/A/) | G2 G G2 e | c2 c c2 A | F2 F D2 F | B2 B B2 G | E2 E D2 F | 
 D2 C B,2 z | E2 F G2 A | G2 E E2 ||

